X:253
T: TRAUTE HEIMATH MEINER LIEBEN
N: F0444
O: Europa, Mitteleuropa, Deutschland
R: Heimat - Lied
M: 4/4
L: 1/8
K: C
EFGA | G2G2AGAB | c2e2
e2c2 | G2E2F2A2 | D4
d3B | c2zed3B | c2G2
e2d2 | c2B2A2^G2 | A4
cBcA | G3EFEFD | C2z2

@@@ Tune index: 5684
